X:124
T: Die elfjaehrige Markgraefin
N: Q0053B
O: Mitteleuropa, Deutschland (BRD) , Westfalen
R: Ballade, Braut - Werbung, Hochzeit, Minderjaehrige, Tod
M: 3/4
L: 1/8
K: F
C2 | F2F2G2 | A2A2c2 | A2B2A2 | F2z2
AB | c2c2d2 | c2c2de | f2d2e2 | f2z2
AB | c2c2B2 | A2G2AA | F2E2FA | G2G2
AB | c2c2B2 | A2G2A2 | F2D2E2 | F2F2

